X: 137015
T: BIDDY THE BOWL WIFE
Q: "Irish Jig."
R: Jig.
%R: jig
B: James Kerr "Merry Melodies" v.1 p.37 s.0 #15
Z: 2016 John Chambers <jc:trillian.mit.edu>
M: 6/8
L: 1/8
K: A
|:\
vEAc ue2uf | ecA ua2uf | ecA EAc | dBB uB2uc |\
EAc e2f | ecA a2f | ecA EAc |BAA A3 :|
|:\
vefe ua2ug | bag fga | ecA EAc | dBB uB2uB |\
efe a2g | bag fga | ecA EAc | BAA A3 H:|

%%sep 1 1 500
%%sep 1 1 500

